Origami/32x32/apps/preferences-ubuntu-panel.svg

<svg width="32" height="32" version="1.1" viewBox="0 0 32 32" xmlns="http://www.w3.org/2000/svg">
 <path d="m3.4003906 4c-0.7756 0-1.4003906 0.6191719-1.4003906 1.3886719v20.611328 1.611328c0 0.7695 0.6247906 1.388672 1.4003906 1.388672h25.199218c0.7756 0 1.400391-0.619172 1.400391-1.388672v-1.611328-20.609375c0-0.7695-0.625391-1.3886719-1.400391-1.3886719h-25.199218v-0.0019531z" style="fill:#8b346f"/>
 <path d="M 3.4003906,4 C 2.6247906,4 2,4.6191719 2,5.3886719 L 2,26 2,27.611328 C 2,28.380828 2.6247906,29 3.4003906,29 L 9,29 9,4.0019531 l -5.5996094,0 z" style="opacity:.2"/>
 <path d="m3.4002 4c-0.7756 0-1.4004 0.6192-1.4004 1.3887v1c0-0.7695 0.6248-1.3887 1.4004-1.3887h25.2c0.775 0 1.4 0.6192 1.4 1.3887v-1c0-0.7695-0.625-1.3887-1.4-1.3887h-25.2z" fill="#fff" opacity=".1"/>
 <rect x="4" y="19" width="3" height="3" rx=".375" ry=".375" style="opacity:.2"/>
 <rect x="4" y="7" width="3" height="3" rx=".375" ry=".375" style="opacity:.2"/>
 <rect x="4" y="6" width="3" height="3" rx=".375" ry=".375" style="fill:#ffffff"/>
 <rect x="4" y="11" width="3" height="3" rx=".375" ry=".375" style="opacity:.2"/>
 <rect x="4" y="10" width="3" height="3" rx=".375" ry=".375" style="fill:#ffffff"/>
 <rect x="4" y="15" width="3" height="3" rx=".375" ry=".375" style="opacity:.2"/>
 <rect x="4" y="14" width="3" height="3" rx=".375" ry=".375" style="fill:#ffffff"/>
 <rect x="4" y="18" width="3" height="3" rx=".375" ry=".375" style="fill:#ffffff"/>
 <path d="m2 27.611v1c0 0.77 0.6248 1.389 1.4004 1.389h25.2c0.775 0 1.4-0.619 1.4-1.389v-1c0 0.77-0.625 1.389-1.4 1.389h-25.2c-0.7752 0-1.4-0.619-1.4-1.389z" opacity=".2"/>
</svg>

<svg xmlns="http://www.w3.org/2000/svg" width="32" height="32" version="1.1" viewBox="0 0 32 32">
 <path style="fill:#8b346f" d="M 3.4003906 4 C 2.6247906 4 2 4.6191719 2 5.3886719 L 2 26 L 2 27.611328 C 2 28.380828 2.6247906 29 3.4003906 29 L 28.599609 29 C 29.375209 29 30 28.380828 30 27.611328 L 30 26 L 30 5.390625 C 30 4.621125 29.374609 4.0019531 28.599609 4.0019531 L 3.4003906 4.0019531 L 3.4003906 4 z"/>
 <path style="opacity:0.2" d="M 3.4003906,4 C 2.6247906,4 2,4.6191719 2,5.3886719 L 2,26 2,27.611328 C 2,28.380828 2.6247906,29 3.4003906,29 L 9,29 9,4.0019531 l -5.5996094,0 z"/>
 <path fill="#fff" opacity=".1" d="m3.4002 4c-0.7756 0-1.4004 0.6192-1.4004 1.3887v1c0-0.7695 0.6248-1.3887 1.4004-1.3887h25.2c0.775 0 1.4 0.6192 1.4 1.3887v-1c0-0.7695-0.625-1.3887-1.4-1.3887h-25.2z"/>
 <rect style="opacity:0.2" width="3" height="3" x="4" y="19" rx=".375" ry=".375"/>
 <rect style="opacity:0.2" width="3" height="3" x="4" y="7" rx=".375" ry=".375"/>
 <rect style="fill:#ffffff" width="3" height="3" x="4" y="6" rx=".375" ry=".375"/>
 <rect style="opacity:0.2" width="3" height="3" x="4" y="11" rx=".375" ry=".375"/>
 <rect style="fill:#ffffff" width="3" height="3" x="4" y="10" rx=".375" ry=".375"/>
 <rect style="opacity:0.2" width="3" height="3" x="4" y="15" rx=".375" ry=".375"/>
 <rect style="fill:#ffffff" width="3" height="3" x="4" y="14" rx=".375" ry=".375"/>
 <rect style="fill:#ffffff" width="3" height="3" x="4" y="18" rx=".375" ry=".375"/>
 <path opacity=".2" d="m2 27.611v1c0 0.77 0.6248 1.389 1.4004 1.389h25.2c0.775 0 1.4-0.619 1.4-1.389v-1c0 0.77-0.625 1.389-1.4 1.389h-25.2c-0.7752 0-1.4-0.619-1.4-1.389z"/>
</svg>
